usr/share/icons/biglinux-icons-material/scalable/mimetypes/application-x-kexi-connectiondata.svg

<svg width="24" height="24" viewBox="0 0 24 24" fill="none" xmlns="http://www.w3.org/2000/svg">
<rect x="1" y="1" width="22" height="22" rx="6.6" fill="url(#paint0_radial_1_864)"/>
<path opacity="0.75" d="M12 5.00001C8.13409 5.00001 5 5.85465 5 6.9091V13.2727C5.00254 13.5456 5.21954 13.8152 5.63636 14.0632C5.63884 14.0645 5.64132 14.0657 5.64381 14.067C5.73558 14.1217 5.83678 14.1752 5.94707 14.2273C5.95366 14.2302 5.96028 14.2331 5.96693 14.236C6.07536 14.2868 6.19232 14.3361 6.31743 14.3839C6.33102 14.3889 6.34471 14.3939 6.35848 14.3988C6.47682 14.443 6.60205 14.4857 6.73383 14.5269C6.76171 14.5356 6.78988 14.5443 6.81835 14.553C6.95036 14.5926 7.08844 14.6308 7.23223 14.6673C7.25323 14.6727 7.27436 14.6781 7.29561 14.6835C7.45333 14.7228 7.61756 14.7601 7.7878 14.7953C7.79896 14.7974 7.81014 14.7995 7.82134 14.8016C7.98878 14.8356 8.16171 14.8675 8.33962 14.8973C8.3689 14.9023 8.39832 14.9073 8.42787 14.9122C8.58949 14.9384 8.75493 14.9629 8.92379 14.9855C8.97034 14.9919 9.01716 14.9981 9.06423 15.0042C9.21806 15.0231 9.37436 15.0405 9.5328 15.0564C9.61017 15.0646 9.68807 15.0725 9.76647 15.08C9.8799 15.0903 9.99429 15.0998 10.1095 15.1086C10.2341 15.1182 10.3597 15.1269 10.4861 15.1347C10.5896 15.1407 10.6936 15.1461 10.7981 15.1508C10.9198 15.1567 11.042 15.1616 11.1647 15.1657C11.2627 15.1692 11.3609 15.1721 11.4593 15.1744C11.6391 15.1788 11.8195 15.1813 12 15.1818C12.2037 15.1814 12.4074 15.1785 12.6102 15.1731C12.6983 15.1707 12.7861 15.1678 12.8737 15.1644C13.0265 15.1596 13.1786 15.1534 13.3299 15.1458C13.4035 15.1416 13.4768 15.137 13.5499 15.1321C13.701 15.1231 13.8511 15.1128 13.9998 15.101C14.0677 15.0951 14.1352 15.0889 14.2024 15.0824C14.3673 15.0679 14.5303 15.0517 14.6908 15.0339C14.7291 15.0295 14.7672 15.0249 14.8052 15.0203C14.98 14.9994 15.1517 14.9766 15.3197 14.9519C15.3652 14.9446 15.4104 14.9371 15.4552 14.9295C15.602 14.9073 15.7459 14.8837 15.8865 14.8587C15.9536 14.8462 16.0199 14.8333 16.0854 14.8201C16.215 14.7948 16.3414 14.7683 16.4645 14.7406C16.5063 14.7308 16.5477 14.7208 16.5887 14.7108C16.7345 14.6767 16.8751 14.6411 17.0101 14.6039C17.013 14.6031 17.0159 14.6022 17.0188 14.6014C17.0238 14.5997 17.0287 14.5981 17.0337 14.5964C17.1906 14.552 17.3395 14.5056 17.4799 14.4572C17.6244 14.4073 17.7596 14.3555 17.8851 14.3019C17.8855 14.3019 17.8859 14.3019 17.8863 14.3019C17.8876 14.3014 17.8889 14.301 17.8902 14.3006C18.0133 14.2483 18.1269 14.1944 18.2307 14.139C18.232 14.1382 18.2333 14.1374 18.2345 14.1365C18.2795 14.1124 18.3226 14.0879 18.3637 14.0632C18.7805 13.8152 18.9975 13.5456 19.0001 13.2727V6.90909C19.0001 5.85464 15.8659 5.00001 12 5.00001ZM12 15.1818L11.3637 15.1818V17.0909H12.0001V17.7273H6.90917V17.0909H5.00008V19H6.90917V18.3636H17.091V19H19.0001V17.0909H17.091V17.7273H12.6364V17.0909H13.2728V15.1818L12 15.1818ZM12.0001 5.63636C15.5147 5.63636 18.3637 6.20591 18.3637 6.90909C18.3637 7.61227 15.5147 8.18182 12.0001 8.18182C8.48544 8.18182 5.63645 7.61227 5.63645 6.90909C5.63645 6.20591 8.48544 5.63636 12.0001 5.63636ZM5.63645 7.69945C6.77172 8.37973 9.25863 8.81691 12.0001 8.81818C14.7415 8.81755 17.2284 8.38036 18.3637 7.69945V10.0909C18.3637 10.7941 15.5147 11.3636 12.0001 11.3636C8.48544 11.3636 5.63645 10.7941 5.63645 10.0909V7.69945ZM5.63645 10.8813C6.77172 11.5615 9.25863 11.9987 12.0001 12C14.7415 11.9994 17.2284 11.5622 18.3637 10.8813V13.2727C18.3637 13.6103 17.6933 13.934 16.4998 14.1727C15.3064 14.4114 13.6878 14.5455 12.0001 14.5455C10.3123 14.5455 8.69372 14.4114 7.50031 14.1727C6.3069 13.934 5.63645 13.6103 5.63645 13.2727V12V10.8813ZM12.0001 15.8182H12.6364V16.4545H12.0001V15.8182ZM5.63645 17.7273H6.27281V18.3636H5.63645V17.7273ZM17.7274 17.7273H18.3637V18.3636H17.7274V17.7273Z" fill="white"/>
<defs>
<radialGradient id="paint0_radial_1_864" cx="0" cy="0" r="1" gradientUnits="userSpaceOnUse" gradientTransform="translate(17.5 1) rotate(116.565) scale(24.5967)">
<stop stop-color="#B084D7"/>
<stop offset="1" stop-color="#783CAF"/>
</radialGradient>
</defs>
</svg>

<svg xmlns="http://www.w3.org/2000/svg" width="24" height="24" fill="none"><rect width="22" height="22" x="1" y="1" fill="url(#a)" rx="6.6"/><path fill="#fff" d="M12 5c-3.866 0-7 .855-7 1.91v6.363c.003.273.22.542.636.79l.008.004a3.579 3.579 0 0 0 .323.169 5.214 5.214 0 0 0 .391.163 7.3 7.3 0 0 0 .46.154 10.033 10.033 0 0 0 .478.13 12.538 12.538 0 0 0 1.132.23 18.131 18.131 0 0 0 1.338.167 24.043 24.043 0 0 0 1.693.094c.18.005.36.007.541.008a24.768 24.768 0 0 0 1.55-.05 22.912 22.912 0 0 0 1.14-.098 18.905 18.905 0 0 0 1.775-.293l.124-.03c.146-.034.286-.07.421-.107l.009-.003.015-.005c.157-.044.306-.09.446-.139.144-.05.28-.102.405-.155h.001l.004-.001c.123-.053.237-.107.34-.162l.005-.002.129-.074c.416-.248.633-.517.636-.79V6.909C19 5.855 15.866 5 12 5Zm0 10.182h-.636v1.909H12v.636H6.91v-.636H5V19h1.91v-.636H17.09V19h1.91v-1.91h-1.91v.637h-4.455v-.636h.637v-1.91H12Zm0-9.546c3.515 0 6.364.57 6.364 1.273S15.514 8.182 12 8.182c-3.515 0-6.364-.57-6.364-1.273S8.486 5.636 12 5.636ZM5.636 7.7C6.772 8.38 9.26 8.817 12 8.82c2.742-.001 5.228-.439 6.364-1.12v2.392c0 .703-2.85 1.273-6.364 1.273-3.515 0-6.364-.57-6.364-1.273V7.699Zm0 3.182C6.772 11.561 9.26 12 12 12c2.742 0 5.228-.438 6.364-1.119v2.392c0 .337-.67.661-1.864.9-1.194.238-2.812.373-4.5.373-1.688 0-3.306-.135-4.5-.373-1.193-.239-1.864-.563-1.864-.9V10.88ZM12 15.818h.636v.636H12v-.636Zm-6.364 1.91h.637v.636h-.637v-.637Zm12.091 0h.637v.636h-.637v-.637Z" opacity=".75"/><defs><radialGradient id="a" cx="0" cy="0" r="1" gradientTransform="rotate(116.565 8.441 5.908) scale(24.5967)" gradientUnits="userSpaceOnUse"><stop stop-color="#B084D7"/><stop offset="1" stop-color="#783CAF"/></radialGradient></defs></svg>
